X: 24148
T: Looking For A Partner
R: jig
M: 6/8
K: Dmajor
"Ai" A|F2 F FED|A2 A A2 F|G2 G GFE|B2 B B2 d|c2 =c ^c2 d|
e2 c B2 A|d2 c d2 e|fed cBA|F2 F FED|A2 A A2 F|
G2 G GFE|B2 B B2 c|d2 d dcB|A2 A AGF|EFG ABc|d3 d2:|
"B" f3 f3|fed A3|dcd e2 d|c3 B3|g3 g3|gee B3|
c2 d ^d2 e|f2 e c2 A|f3 f3|fed A3|dcd e2 d|
c3 B3|g2 g gfe|d2 d dcB|ABA ABc|d3 d2:|
"Aii" A|F2 F FED|A2 A A2 F|G2 G GFE|B2 B B2 d|c2 =c ^c2 d|
e2 c B2 A|d2 c d2 e|fed cBA|F2 F FED|A2 A A2 F|
G2 G GFE|B2 B B2 c|d2 d dcB|A2 A AGF|EFG ABc|d3 =c3||
K:G
"C" B3- B3|c3 ^c3|d2 ^c d2 c|d3- d3|B2 c ^c2 d|e3 d3|F6-|F6|c3- c3|
c2 B A2 B|c3- c3|c2 B c2 d|f3 e3|d3 A3|_B6|=B6|B3- B3|c3 ^c3|
d2 ^c d2 c|d3- d3|B2 c ^c2 d|e3 d3|f6-|f3- fef|g2 g gfe|
g2 g gfe|d2 d dBG|e3-e2 B|cBc dcd|ede fef|g2 d edB|G3- G2||
K:D
"Aiii" A|F2 F FED|A2 A A2 F|G2 G GFE|B2 B B2 d|c2 =c ^c2 d|
e2 c B2 A|d2 c d2 e|fed cBA|F2 F FED|A2 A A2 F|G2 G GFE|
B2 B B2 c|d2 d dcB|A2 A AGF|EFG ABc|d z2 z3|[f6A6D6 A,6]||

